X: 1
T:BWV 578
C:Johann Sebastian Bach
O:Germany
Z:Transcribed by Frank Nordberg - http://www.musicaviva.com

V:1 Program 1 19 up %Church organ
V:2 Program 1 19 merge down %Church organ
V:3 Program 1 19 bass up %Church organ
V:4 Program 1 19 bass merge down %Church organ
m: Mn3 = o/n/o/n/o/n/
M:C
L:1/16
Q:1/4=72

K:Gm
V:1
G4d4B6A2|G2B2A2G2 ^F2A2D4|G2D2A2D2 B2AG A2D2|G2DG A2DA B2AG ADdc|
V:2
z16|z16|z16|z16|
V:3
z16|z16|z16|z16|
V:4
z16|z16|z16|z16|

V:1
BAGB AG^FA GDGA Bcd=e|=f=edf ed^ce d2A2d2=e2|fgfg Mg3f/g/ agab agf=e|faga ^caga daga ^caga|
V:2
z16|D4A4F6=E2|D2F2=E2D2 ^C2=E2A,4|D2A,2=E2A,2 F2=ED E2A,2|
V:3
z16|z16|z16|z16|
V:4
z16|z16|z16|z16|

V:1
fd^cd gdcd adcd gdcd|A2f2G2=e2 F2A2d2f2|_e2a2 z2 e2 d2g2 z2 d2|cBcd caga Bg^fg A^f=ef|
V:2
D2A,D =E2A,E F2ED EA,AG|F=EDF ED^CE DA,D=E FGA=B|c_Bcd cBAc BABc BAGB|A2G2^F2D2G4 z4|
V:3
z16|z16|z16|z8 G,4D4|
V:4
z16|z16|z16|z16|

V:1
g8 z8|z8 Bdcd ^Fdcd|Gdcd ^FdcdB4c4|d4c4 z2 B2 z2 A2|
V:2
z2 D2G2A2 BcBc Mc3B/c/|dcd_e dcBA D2 z2 C2 z2|D2 z2 C2 z2 z G^FG z GFG|z G^FG z GFG D4C4|
V:3
B,6A,2 G,2B,2A,2G,2|^F,2A,2D,4G,2D,2A,2D,2|B,2A,G, A,2D,2 G,2D,G, A,2D,A,|B,2A,G, A,D,DC B,A,G,B, A,G,^F,A,|
V:4
z16|z16|z16|z16|

V:1
z2 D2 GABG A2d2^c2=e2|abag f=ed^c d2 z2 b2 z2|=e2 z2 z2 a2 a8-|a16-|
V:2
B,4 z4 z8|z16|z16|z16|
V:3
G,D,G,A, B,CD=E =F=EDF ED^CE|D2A,2D2=E2 FGFG MG3F/G/|AGAB AGF=E FAGA ^CAGA|DAGA ^CAGA FD^CD GDCD|
V:4
z8 D,4A,4|F,6=E,2 D,2F,2E,2D,2|^C,2=E,2A,,4D,2A,,2=E,2A,,2|F,2=E,D, E,2A,,2 D,2A,,D, =E,2A,,E,|

V:1
a8-agab agf=e|f8 z2 d2g2f2|_e8-e2c2f2e2|d4-dg^fg c4-cBAc|
V:2
z16|z2 A2d2=c2 B8-|B2G2c2B2 A8-|A4G8^F4|
V:3
AD^CD GDCD F2=ED M^C3D|D=CD=E DCB,A, G,F,G,A, G,F,_E,D,|CB,CD CB,A,G, F,E,F,G, F,E,D,C,|B,,B,CDE4 z A,B,CD4|
V:4
F,2=E,D, E,2A,,2 D,2G,,2A,,4|D,,4 z4 z8|z16|z16|

V:1
BAGB AG^FA GD=E^F GDGA|BGBc dAdc B6A2|G2B2A2G2 ^F2A2D4|G2D2A2D2 B2AG A2D2|
V:2
G2 z2 z4 z8|z16|z16|z16|
V:3
G,4D4B,6A,2|G,B,A,G, ^F,G,=E,F, G,D,E,F, G,D,G,A,|B,CB,C MC3B,/C/ DCD_E DCB,A,|B,DCD ^F,DCD G,DCD ^F,DCD|
V:4
z16|z8 z2 G,,2G,2=F,2|_E,2 z2 _E,,2 z2 D,,2D,2D,4-|D,16-|

V:1
G2DG A2DA B2AG ADdc|BAGB AG^FA GBcd eBAG|^FABc dAG=F EGAB cGFE|DFGA BdcB Acde fgfe|
V:2
z16|z16|z16|z16|
V:3
B,G,^F,G, CG,F,G, DG,F,G, CG,F,G,|G,2B,2 CB,G,C B,4-B,DCB,|A,4-A,CB,A, G,4-G,B,A,G,|=F,4-F,2=E,2 F,2_E,2D,2C,2|
V:4
D,16-|D,8-D,4C,4-|C,4B,,8A,,4|B,,2A,,2G,,4F,,4 z4|

V:1
dfed cBAc BFGA BcBc|d=ede Me3d/e/ f_efg fedc|dfef Afef Bfef Afef|dBAB eBAB fBAB eBAB|
V:2
B,4F4D6C2|B,2D2C2B,2 A,2C2 z2 F2|F16-|F16-|
V:3
B,,4 z4 z2 C2B,2A,2|G,8F,4F,4|B,2F,2C2F,2 D2CB, C2F,2|B,2F,B, C2F,C D2CB, CF,FE|
V:4
z16|z16|z16|z16|

V:1
BcdB edce dcde dcBd|cBcd cBAc BABc BAGB|A2f2 z2 _A2 G2e2 z2 G2|F2d2 z2 F2 EGcB =AGFE|
V:2
F8 z8|z16|z16|z16|
V:3
DCB,D CB,A,C B,2G2 z2 G,2|A,2F2 z2 F,2 G,2F2C2=E2|F_EFG FEDF EDEF EDCE|DCDE DCB,D CB,CD CB,=A,C|
V:4
z16|z16|z16|z16|

V:1
DEFG ABcA BFGA BcBc|d=ede Me3d/e/ f_efg f2f2|f16-|f16-|
V:2
z16|z16|z16|z16|
V:3
B,CDB, CDEC DCB,C DEDE|FGFG MG3F/G/ AGAB AGF_E|DFEF A,FEF B,FEF A,FEF|DBAB EBAB FBAB EBAB|
V:4
B,,4F,4D,6C,2|B,,2D,2C,2B,,2 A,,2C,2F,,4|B,,2F,,2C,2F,,2 D,2C,B,, C,2F,,2|B,,2F,,B,, C,2F,,C, D,2C,B,, C,2F,,2|

V:1
fefg c3a babc' bagf|edef edcB agab agfe|dcde dcBA gfg_a gfed|cBcd cdec f4-f_agf|
V:2
z8 z2 F2B2A2|G8-G2C2A2G2|F8-F2B,2G2F2|E8-EEDC=B,4|
V:3
BdcB AGFED8-|D2G,2C2B,2 A,8-|A,2F,2B,2A,2G,8-|G,2E,2_A,2G,2F,4G,4-|
V:4
D,2E,2F,2F,,2 B,,4 z4|C,4 z4 F,,4 z4|B,,4 z4 E,,4 z4|_A,,4 z4 D,,4G,,4|

V:1
e8-ecde fg_af|=BcdB G2 z2 c4 g4|e6d2 c2e2d2c2|=B2d2G4c2G2d2G2|
V:2
C4 z4 z2 C2_A2F2-|F4-FFED EDCE DC=B,D|CG,CD EFEF GECE _AFGA|DEDC =B,2D2 G,8-|
V:3
G,G,=A,=B, CDEC_A,8|G,2=A,2=B,4C2 z2 z4|z16|z16|
V:4
C,,4 z4 F,,4 z4|G,,16|C,,2G,,2C,2D,2E,4F,4|G,4-G,G,F,G, E,G,F,G, =B,,G,F,G,|

V:1
e2dc d2G2 c2Gc d2Gd|e2dc dGgf edce dc=Bd|cgeg ceG_B =AcAc FACE|Dfdf BdFA GBGB EGB,D|
V:2
G,16-|G,8-G,2G2 FEDF|E4 z4 z2 C2=A,2F,2|B,8-B,2B,2G,2E,2|
V:3
z16|z16|z2 G,2E,2C,2 F,4 z4|z2 F,2D,2B,,2 E,4 z4|
V:4
C,G,F,G,=B,,G,F,G, E,C=B,C F,CB,C|G,C=B,C G,=B,A,B, C,2E,2F,2G,2|C,4 z4 z8|z16|

V:1
Cece Ac=EG ^FAFA DFA,C|B,2G2A,2^F2 G4 z4|GBAG dADc BdcB =fc=Fe|dfed gdGf =egfe aeAg|
V:2
A,8-A,2A,2^F,2D,2|G,4 z4 G,B,A,G, DA,D,C|B,2D2A,2D2- D2G2C2=F2-|F2F2D2G2- G2G2=E2A2-|
V:3
z2 E,2C,2A,,2D,4 z4|G,,B,,A,,G,, D,A,,D,,C, B,,2D,2^F,,2D,2|G,4^F,4G,4A,4|B,4=B,4C4^C4|
V:4
z16|z16|z16|z16|

V:1
^f4g2a2b8-|b4=a8g4-|g4^f4g4 z4|z2 d2g2a2 baga ^fgfg|
V:2
A_edc BdAd G_ag^f g=fed|e8d8|c8BdcB ABGA|BcBc d_edc B2d2c2B2|
V:3
D4=E2^F2G4=A2B2|cG=F_E cAFA BFED BGEG|AEDC A^FDF G,B,DG ^FG=EF|G6^F2G4A2D2|
V:4
z16|z16|z8G,4D4|B,6A,2 G,2B,2A,2G,2|

V:1
ag^f=e dcBA Bdcd ^Fdcd|Gdcd ^Fdcd BGFG cGFG|dG^FG cGFG B2g2A2^f2|Hg16|]
V:2
A4 z2 D2 D8-|D16-|D8-D2_E2 E2D2|HD16|]
V:3
D4 z2 ^F,2 G,2 z2 C2 z2|B,2 z2 C2 z2 B,2 z2 A,2 z2|G,2 z2 A,2 z2 G,2B,2C2A,2|H=B,16|]
V:4
^F,2A,2D,4G,2D,2A,2D,2|B,2A,G, A,2D,2 G,2D,G, A,2D,A,|B,2A,G, A,2D,2 G,2E,2C,2D,2|HG,,16|]

